X: 3048
T: STRACHUR
C: Carl Volti
Q:"Reel."
R: Reel.
%R:reel
B: James Kerr "Merry Melodies" v.3 p.8 #48
Z: 2016 John Chambers <jc:trillian.mit.edu>
M: C
L: 1/8
K: G
(uBc) |\
dgeg dBGB | dgeg d2(Bc) |\
dgeg dBGB |[1 AFDF A2 :|[2 AFDF Aedc |]
|:\
(BG)GG (DG)GG | BGGB dedc |\
[1 (BG)GG (DG)GG | FGAB cedc :|\
[2 Bdgf edcB | AGFE D2 |]

%%sep 1 1 500
%%sep 1 1 500

